packages/ui/src/lib/icons/svg/package.svg

<svg width="100%" height="100%" viewBox="0 0 16 16" fill="none" xmlns="http://www.w3.org/2000/svg">
<path d="M2 5.0127V11.25L8 14.5M2 5.0127L8 8M2 5.0127L5 3.25635M14 4.75L8 1.5L5 3.25635M14 4.75V11.25L8 14.5M14 4.75L11 6.375M8 14.5V8M8 8L11 6.375M11 6.375L5 3.25635" stroke="currentColor" stroke-width="1.5"/>
</svg>

<svg xmlns="http://www.w3.org/2000/svg" fill="none" viewBox="0 0 16 16" width="100%" height="100%"><path stroke="currentColor" stroke-width="1.5" d="M2 5.013v6.237l6 3.25M2 5.013 8 8M2 5.013l3-1.757m9 1.494L8 1.5 5 3.256m9 1.494v6.5L8 14.5m6-9.75-3 1.625M8 14.5V8m0 0 3-1.625m0 0L5 3.256"/></svg>
